X: 9
T:Gan Ainm
R:Jig
M:6/8
D:Private tape
S:Michael O'Raihillaigh (concertina)
Z:Bernie Stocks
K:D
AFA d2A | dfa gfe |1 fdd e2d | =cAG FGA :|2 ged =cAG | Adc d3 :: ABA GFG |
ADD FED | EDE =cBc | GEG =cAG | AGA GFG | Add efg | (3gfed =cAG | Adc de=f ::
fdd efg | add =cde | fdd efg | agf d2e | (3fgaf gfg | add =cde | (3gfed =cAG | Adc d3 :|
<end>
<start>
